X:130
T: Nightingale [The]
C: Se\'an Ryan
S: B.Breathnach:"Ceol Rince na hEireann" III/26 (gan ainm)
Z: B.Black
L: 1/8
M: 6/8
R: jig
K: Ador
G|EAA A2B|cAB cAG|E3 G3|DB,D A/G/FG|
EAA A2B|cAB cde|g3 e/f/ge|dBG A2 :|
a|aea aef|gdg gdg|a3 aef|gfe def|
g2e fed|edB GBd|g3 e/f/ge|dBG A2 :|
